X:1
T:Dowd's No. 9
R:reel
M:4/4
L:1/8
K:D
|:DFAF GFEF|D2FA dABA|F2FA G2GB|AGFD A,B,CA,|
|DFAF GFEF|D2FA dABA|F2FA G2GB|1 AGFD EDDA,:|2 AGFD EDD2|]
|:fd~d2 g2ag|fedf ecA2|fd~d2 gfec|dcde fddA|
|dfaf gfeg|fedf ecAF|GABG FAdB|1 AGFD EDD2:|2 AGFD A,B,CA,|]